packages/core/src/svgs/tokens/branded/HDX.svg

<svg width="24" height="24" viewBox="0 0 24 24" fill="none" xmlns="http://www.w3.org/2000/svg">
<path d="M11.5113 21.8707C11.6602 21.9554 11.8287 22 12 22C12.1715 22 12.3399 21.9554 12.4889 21.8707L20.3988 17.3548C20.5463 17.2696 20.6689 17.1474 20.7547 17.0003C20.8403 16.8532 20.8862 16.6863 20.8877 16.516V7.48401C20.8869 7.31434 20.8414 7.14787 20.7555 7.00153C20.6697 6.85518 20.5465 6.73418 20.3988 6.65082L12.4889 2.12929C12.3399 2.04455 12.1715 2 12 2C11.8287 2 11.6602 2.04455 11.5113 2.12929L3.60136 6.64526C3.45389 6.7304 3.33123 6.85257 3.24549 6.99967C3.15975 7.14679 3.11392 7.31374 3.11255 7.48401V16.516C3.11321 16.6856 3.15879 16.8522 3.24465 16.9985C3.3305 17.1448 3.45358 17.2659 3.60136 17.3492L11.5113 21.8707ZM11.5557 4.22341C11.6946 4.14452 11.8515 4.10305 12.0112 4.10305C12.1709 4.10305 12.3278 4.14452 12.4666 4.22341L18.7713 7.7062C18.9156 7.78953 19.0268 7.90062 19.1045 8.03949C19.1878 8.17836 19.2157 8.33389 19.2157 8.48942V15.4773C19.2153 15.6356 19.173 15.791 19.0931 15.9277C19.013 16.0643 18.8981 16.1772 18.7601 16.2549L12.4445 19.7765C12.3057 19.8555 12.1487 19.897 11.9889 19.897C11.8292 19.897 11.6723 19.8555 11.5335 19.7765L5.23444 16.2938C5.09629 16.2154 4.98169 16.1013 4.90256 15.9636C4.82344 15.8259 4.78268 15.6695 4.78452 15.5106V8.52274C4.78649 8.36409 4.83011 8.20874 4.91103 8.07226C4.99194 7.93578 5.10731 7.82295 5.24555 7.74509L11.5612 4.22341H11.5557ZM11.5113 17.427C11.6501 17.5058 11.8071 17.5473 11.9667 17.5473C12.1264 17.5473 12.2834 17.5058 12.4222 17.427L16.5328 15.094C16.67 15.0187 16.7852 14.9089 16.867 14.7754C16.9488 14.6419 16.9944 14.4895 16.9994 14.3329V9.66698C16.9997 9.50924 16.9578 9.35429 16.8775 9.21843C16.7974 9.08256 16.6821 8.97079 16.5438 8.89492L15.3328 8.09503V13.9441L13.1111 15.1606V12.5499L10.8892 13.0498V17.1048L11.5169 17.438L11.5113 17.427ZM7.40078 15.094L8.66725 15.8994V9.917L10.8892 8.69494V10.989L13.1111 10.5168V6.87301L12.4278 6.56749C12.289 6.48861 12.132 6.44713 11.9723 6.44713C11.8126 6.44713 11.6557 6.48861 11.5169 6.56749L7.40634 8.90047C7.26192 8.97823 7.15081 9.08933 7.07305 9.22264C7.00084 9.34485 7.00084 9.47814 7.00084 9.61151V14.3885C7.00084 14.5218 7.00084 14.6551 7.0675 14.7774C7.15081 14.9106 7.26192 15.0273 7.40078 15.105V15.094Z" fill="url(#paint0_linear_364_3503)"/>
<defs>
<linearGradient id="paint0_linear_364_3503" x1="11.9889" y1="2.10151" x2="11.9889" y2="21.8874" gradientUnits="userSpaceOnUse">
<stop stop-color="#F7F5F6"/>
<stop offset="0.88" stop-color="#A69696"/>
</linearGradient>
</defs>
</svg>

<svg xmlns="http://www.w3.org/2000/svg" width="24" height="24" fill="none" viewBox="0 0 24 24">
    <path fill="url(#HDX__a)" d="M11.511 21.87a.99.99 0 0 0 .978 0l7.91-4.515a.98.98 0 0 0 .489-.839V7.484a.96.96 0 0 0-.49-.833l-7.91-4.522a.99.99 0 0 0-.977 0l-7.91 4.516a.98.98 0 0 0-.488.839v9.032a.96.96 0 0 0 .488.833zm.045-17.647a.92.92 0 0 1 .91 0l6.305 3.483a.87.87 0 0 1 .445.783v6.988a.9.9 0 0 1-.456.778l-6.316 3.521a.92.92 0 0 1-.91 0l-6.3-3.482a.89.89 0 0 1-.45-.783V8.523a.9.9 0 0 1 .462-.778l6.315-3.522zm-.045 13.204a.92.92 0 0 0 .911 0l4.11-2.333a.9.9 0 0 0 .467-.761V9.667a.88.88 0 0 0-.455-.772l-1.211-.8v5.85L13.11 15.16v-2.61l-2.222.5v4.055l.628.333zm-4.11-2.333 1.266.805V9.917l2.222-1.222v2.294l2.222-.472V6.873l-.683-.306a.92.92 0 0 0-.911 0L7.407 8.9a.85.85 0 0 0-.334.323c-.072.122-.072.255-.072.389v4.777c0 .133 0 .266.066.388.084.134.195.25.334.328z"/>
    <defs>
        <linearGradient id="HDX__a" x1="11.989" x2="11.989" y1="2.102" y2="21.887" gradientUnits="userSpaceOnUse">
            <stop stop-color="#F7F5F6"/>
            <stop offset=".88" stop-color="#A69696"/>
        </linearGradient>
    </defs>
</svg>
